img/part6/footer/乾和logo.svg

<svg width="24" height="12" viewBox="0 0 24 12" fill="none" xmlns="http://www.w3.org/2000/svg"><g clip-path="url(#clip0_84_1043)"><path d="M11.3377 6.12884C10.6991 6.14619 10.3536 6.23937 10.0845 5.91235C9.85266 5.6301 10.207 4.20511 10.255 4.0279C10.5614 2.8934 11.1982 2.06764 12.0988 1.36154C12.6566 0.923997 13.2508 0.606117 13.884 0.363139C14.3823 0.172228 14.9285 0.0242485 15.4552 0.0187678C16.7484 0.00780643 18.046 0.0388637 19.3338 0.153045C20.19 0.228861 20.9503 0.670058 21.6635 1.16423C22.6893 1.8749 23.4105 2.83402 23.8084 4.0343C23.9274 4.39328 24.0047 4.78789 24.0011 5.16515C23.994 5.94249 23.986 6.73172 23.8484 7.49079C23.7569 7.99411 23.4478 8.61617 23.2062 9.08202C22.803 9.78538 22.4522 10.1371 21.9397 10.6641C21.0258 11.6041 19.8161 12.0051 18.5247 12.0014C14.2002 11.9895 9.87575 12.0096 5.55127 11.9795C5.04502 11.9758 4.51212 11.8005 4.04317 11.5867C3.37083 11.2798 2.69049 10.9363 2.11674 10.4732C1.44084 9.92879 0.832449 9.28207 0.458531 8.44809C-0.0477227 7.31724 -0.0406174 6.11696 0.0402056 4.92948C0.0997127 4.04252 0.498499 3.22681 1.04294 2.54811C1.50479 1.97355 2.04657 1.42822 2.65141 1.02539C3.20474 0.65727 3.86553 0.425253 4.51301 0.24165C5.887 -0.146567 6.95013 0.0580462 8.27172 0.0205947C8.32057 0.0187678 8.33745 0.0224216 8.4538 0.0196813C8.4538 0.440782 8.48577 0.897507 8.44669 1.32683C8.43781 1.42457 8.43603 1.57711 8.30991 1.58077C7.50168 1.58625 6.46608 1.60909 5.65519 1.5826C4.70218 1.55154 3.88063 1.91326 3.13191 2.45403C1.82453 3.39854 1.31117 4.74405 1.4142 6.35081C1.45772 7.03681 1.65489 7.69267 2.04035 8.26266C2.70648 9.24736 3.57599 9.96807 4.71462 10.3024C4.85228 10.3426 5.00594 10.3353 5.15248 10.3353C9.6839 10.3371 14.2144 10.3444 18.7459 10.3344C19.9626 10.3316 20.8801 9.68034 21.5818 8.72669C21.9299 8.25352 22.3083 7.70271 22.3882 7.14368C22.5259 6.18091 22.6174 5.19438 22.2328 4.21059C21.8393 3.20671 21.135 2.5335 20.2957 2.0174C19.6989 1.65019 19.0079 1.41543 18.2751 1.42C17.3452 1.4264 16.4153 1.41726 15.4854 1.42183C14.5448 1.42548 13.7641 1.8548 13.0243 2.40105C12.153 3.04412 11.78 3.94021 11.5029 4.94957C11.3785 5.40173 11.3608 5.61 11.3368 6.12975L11.3377 6.12884Z" fill="#F1F1F1"></path><path d="M8.46688 2.45801C8.46688 2.94579 8.46688 3.3541 8.46688 3.76242C8.46688 4.05289 8.32388 4.14606 8.04678 4.14241C7.20569 4.13236 6.36282 4.18991 5.52439 4.1415C4.64955 4.09034 3.79158 5.37009 4.10777 6.34109C4.32714 7.01521 4.84672 7.38881 5.3885 7.74049C5.48886 7.80535 6.56443 7.79256 6.6941 7.79256C10.8258 7.7953 14.0392 7.79621 18.171 7.79439C18.8913 7.79439 19.6862 6.96771 19.7119 6.22782C19.7368 5.52172 19.6658 4.86586 18.9819 4.48221C18.7643 4.36073 18.536 4.18443 18.3069 4.17438C17.4089 4.13602 16.5074 4.13602 15.6086 4.15611C14.8226 4.17347 14.0419 5.03211 14.0321 5.84691C14.0286 6.15017 14.009 6.45618 14.0366 6.75671C14.0801 7.23809 13.7497 7.41439 13.4166 7.50848C13.0667 7.60621 12.7239 7.5167 12.5151 7.1367C11.9893 6.18032 12.2789 5.29244 12.7176 4.41645C13.1484 3.55689 13.4974 3.17781 14.3128 2.81699C14.5464 2.71377 15.2507 2.63065 15.5109 2.63522C16.654 2.6544 17.8077 2.61147 18.9339 2.77132C19.3984 2.83709 19.9162 3.19334 20.2724 3.5715C20.7697 4.01361 20.9811 4.6576 21.1321 5.2824C21.3497 6.18215 21.2733 7.2792 20.7697 8.05929C20.5761 8.3589 20.4473 8.49774 20.1702 8.72428C19.5663 9.21846 18.9002 9.43494 18.2003 9.4386C14.0534 9.46052 9.9066 9.44042 5.75975 9.46143C5.03856 9.46509 4.49323 9.08783 3.99763 8.68409C2.59522 7.54227 2.40693 6.29267 2.83858 4.6713C3.07838 3.77064 3.72585 3.08555 4.58649 2.70464C5.07231 2.42421 5.61765 2.46166 6.11946 2.45983C6.88417 2.45709 7.64888 2.45983 8.46688 2.45983V2.45801Z" fill="#F1F1F1"></path></g><defs><clipPath id="clip0_84_1043"><rect width="24" height="12" fill="white"></rect></clipPath></defs></svg>

<svg width="24" height="12" fill="none" xmlns="http://www.w3.org/2000/svg"><g clip-path="url(#a)" fill="#F1F1F1"><path d="M11.338 6.129c-.639.017-.984.11-1.253-.217-.232-.282.122-1.707.17-1.884.306-1.135.943-1.96 1.844-2.666a6.788 6.788 0 0 1 1.785-.999c.498-.19 1.044-.339 1.571-.344 1.293-.011 2.591.02 3.879.134.856.076 1.616.517 2.33 1.011a5.525 5.525 0 0 1 2.144 2.87c.12.36.197.754.193 1.131-.007.777-.015 1.567-.153 2.326-.091.503-.4 1.125-.642 1.591-.403.703-.754 1.055-1.266 1.582-.914.94-2.124 1.341-3.415 1.337-4.325-.011-8.65.009-12.974-.021-.506-.004-1.039-.18-1.508-.393-.672-.307-1.353-.65-1.926-1.114C1.44 9.93.832 9.283.459 8.448c-.507-1.13-.5-2.331-.419-3.519.06-.886.458-1.702 1.003-2.38.462-.575 1.004-1.12 1.608-1.524.554-.368 1.215-.6 1.862-.783C5.887-.147 6.95.058 8.272.02c.049-.002.065.001.182-.001 0 .42.032.878-.007 1.307-.01.098-.011.25-.137.254-.808.005-1.844.028-2.655.002-.953-.031-1.774.33-2.523.871-1.307.945-1.82 2.29-1.718 3.897.044.686.24 1.342.626 1.912.666.984 1.536 1.705 2.675 2.04.137.04.29.032.437.032 4.532.002 9.062.01 13.594 0 1.217-.003 2.134-.655 2.836-1.608.348-.473.726-1.024.806-1.583.138-.963.23-1.95-.155-2.933-.394-1.004-1.098-1.678-1.937-2.194-.597-.367-1.288-.602-2.02-.597-.93.006-1.86-.003-2.79.002-.941.003-1.722.433-2.462.98-.871.642-1.244 1.538-1.521 2.548-.124.452-.142.66-.166 1.18v-.001Z"/><path d="M8.467 2.458v1.304c0 .29-.143.384-.42.38-.841-.01-1.684.048-2.523 0-.874-.052-1.732 1.228-1.416 2.2.22.673.739 1.047 1.28 1.398.1.065 1.176.053 1.306.053 4.132.002 7.345.003 11.477.001.72 0 1.515-.826 1.54-1.566.026-.706-.045-1.362-.73-1.746-.217-.121-.445-.298-.674-.308-.898-.038-1.8-.038-2.698-.018-.786.017-1.567.876-1.577 1.69-.003.304-.023.61.005.91.043.482-.287.658-.62.752-.35.098-.693.009-.902-.371-.526-.957-.236-1.845.203-2.72.43-.86.78-1.24 1.595-1.6.233-.103.938-.186 1.198-.182 1.143.02 2.297-.024 3.423.136.464.066.982.422 1.338.8.498.443.71 1.087.86 1.711.218.9.141 1.997-.362 2.777a2.43 2.43 0 0 1-.6.665c-.604.494-1.27.71-1.97.715-4.147.022-8.293.001-12.44.022-.721.004-1.267-.373-1.762-.777-1.403-1.142-1.591-2.391-1.16-4.013.24-.9.888-1.585 1.748-1.966.486-.28 1.032-.243 1.533-.245.765-.003 1.53 0 2.348 0v-.002Z"/></g><defs><clipPath id="a"><path fill="#fff" d="M0 0h24v12H0z"/></clipPath></defs></svg>
